X:181
%%etbk:tnset id:57,pos:5,rep:3x,ant:
%%etbk:tnset id:182,pos:9,rep:3x,ant:
%%etbk:tnset id:319,pos:2,rep:3x,ant:
%%etbk:tnset id:341,pos:3,rep:3x,ant:
%%etbk:wsite http://www.thesession.org/tunes/display/33
%%etbk:pldat 2016-06-23T18:39,2016-06-22T15:36,2016-06-16T18:14,2016-05-04T16:09,2016-03-09T16:49,2016-03-08T15:17,2016-03-05T13:38,2016-02-26T17:19,2015-10-27T17:26,2015-10-25T14:43,2015-10-21T16:22,2015-10-07T16:58,2015-06-21T15:53,2015-06-16T17:11,2015-03-13T18:18,2015-03-09T17:55,2015-03-04T16:28,2015-02-14T14:18,2014-11-06T18:04,2014-11-04T16:27,2014-10-29T15:24,2014-10-27T18:36,2014-09-04T18:21,2014-09-03T18:29,2014-09-02T18:25,2014-09-01T18:26,2014-08-31T13:41,2014-08-28T18:26,2014-08-27T18:33,2014-08-26T16:22,2014-08-21T19:30,2014-08-19T18:05,2014-08-14T19:42,2014-08-13T19:56,2014-08-12T19:21,2014-08-11T19:45,2014-08-10T11:48,2014-08-06T18:29,2014-08-03T14:51,2014-07-22T19:30,2014-07-20T11:51,2014-07-13T15:13,2014-06-23T18:19,2014-06-13T15:25,2014-06-11T16:12,2014-06-03T15:15,2014-05-28T16:38,2014-03-06T18:39,2014-03-04T19:21,2014-03-01T15:53,2014-02-23T11:25,2013-10-29T17:17,2013-10-27T15:06,2013-10-23T18:24,2013-10-16T15:58,2013-10-13T14:10,2013-10-08T16:24,2013-05-10T16:17
T: Farewell To Erin
Z: Piano Box Version by Martin Fleischmann
H: Created 2013-02-19 /  Last Modified 2013-02-19
M: 4/4
L: 1/8
R: reel
K: Ador
|: "am"!1!A,3 !2!C !4!E2!2!EF | "G"!4!GE!1!D!3!B, !1!G,A,B,!1!G, | "am"!1!A,3 !2!C !4!E2!2!EF | "em"!4!GE!1!D!2!B, "am"!5!E!1!A, !3!(3A,!2!A,!1!A, |
"am"!1!A,3 !2!C !4!E2!2!EF | "G"!4!GE!1!D!2!B, !1!G,2 z!4!g | "am"!2!edeg !5!a2af | "em"!4!ge!1!d!2!B "am"{d}B!1!AA2:|
|: "am"!5!a2!3!ab !3!ag!1!e!2!f | "G"!3!g!2!g!3!ga !3!g!1!e!2!d!1!e | "am"!3!a3b ag!1!e!3!f | "em"!4!ge!1!d!2!B "am"{d}B!1!AA2 |
"am"!5!agef !4!g!3!g!4!ge | "G"!1!de!1!d!3!B !1!GA!3!B!4!d | "am"!3!cBAB !3!c!1!de!5!a | "em"!4!ge!1!d!2!B "am"{d}B!1!AA2 :|
|: "am"!5!e!1!ABA eABA | "G"!4!d2d!2!B !1!GA!3!B!4!d | "am"!5!e!1!ABA !2!e{g}ee!5!a | "em"!4!ge!1!d!2!B "am"{d}B!1!AA2 |
"am"!5!e!1!ABA eABA | "G"!4!d3!2!B !1!GA!3!B!4!d | "am"!3!cBAB !3!c!1!de!5!a | "em"!4!ge!1!d!2!B "am"{d}B!1!AA2 :|
|: "A"!5!a!3!e!2!^ce ae^ce | "G"!4!g!2!d!1!Bd gdBd | "A"!5!a!3!e!2!^ce !5!a2af | "G"!4!ge!1!d!2!B "am"{d}B!1!AA2 |
"am"!5!agef !4!g!3!g!4!ge | "G"!1!de!1!d!3!B !1!GA!3!B!4!d | "am"!3!cBAB !3!c!1!de!5!a | "em"!4!ge!1!d!2!B "am"{d}B!1!AA2 :|


